icons/clerk-filled.svg

<svg width="256" height="256" viewBox="0 0 256 256" fill="none" xmlns="http://www.w3.org/2000/svg">
<g clip-path="url(#clip0_1_31)">
<path d="M196 0H60C26.8629 0 0 26.8629 0 60V196C0 229.137 26.8629 256 60 256H196C229.137 256 256 229.137 256 196V60C256 26.8629 229.137 0 196 0Z" fill="#654BF6"/>
<path d="M138.5 158.969C155.328 158.969 168.969 145.328 168.969 128.501C168.969 111.673 155.328 98.0316 138.5 98.0316C121.673 98.0316 108.032 111.673 108.032 128.501C108.032 145.328 121.673 158.969 138.5 158.969Z" fill="#F4F2ED"/>
<path d="M193.398 200.641C195.99 203.234 195.73 207.525 192.684 209.566C177.187 219.946 158.547 226 138.493 226C118.439 226 99.7991 219.946 84.3015 209.566C81.2557 207.525 80.9954 203.234 83.5877 200.641L105.854 178.374C107.866 176.362 110.988 176.044 113.521 177.342C121.011 181.179 129.499 183.343 138.493 183.343C147.487 183.343 155.975 181.179 163.465 177.342C165.998 176.044 169.119 176.362 171.132 178.374L193.398 200.641Z" fill="#F4F2ED"/>
<path d="M192.691 47.4349C195.738 49.4752 195.998 53.7669 193.405 56.3592L171.139 78.6257C169.127 80.6381 166.004 80.9559 163.472 79.6583C155.981 75.8213 147.494 73.6565 138.5 73.6565C108.211 73.6565 83.6563 98.211 83.6563 128.501C83.6563 137.494 85.8211 145.982 89.6581 153.473C90.9557 156.005 90.6378 159.127 88.6254 161.139L66.3591 183.406C63.7668 185.998 59.4751 185.738 57.4348 182.692C47.0543 167.194 41 148.554 41 128.501C41 74.6525 84.6523 31 138.5 31C158.554 31 177.194 37.0544 192.691 47.4349Z" fill="#F4F2ED" fill-opacity="0.5"/>
</g>
<defs>
<clipPath id="clip0_1_31">
<rect width="256" height="256" fill="white"/>
</clipPath>
</defs>
</svg>

<svg xmlns="http://www.w3.org/2000/svg" width="256" height="256" fill="none"><g clip-path="url(#clip0_1_31)"><path fill="#654BF6" d="M196 0H60C26.863 0 0 26.863 0 60v136c0 33.137 26.863 60 60 60h136c33.137 0 60-26.863 60-60V60c0-33.137-26.863-60-60-60"/><path fill="#F4F2ED" d="M138.5 158.969c16.828 0 30.469-13.641 30.469-30.468 0-16.828-13.641-30.47-30.469-30.47-16.827 0-30.468 13.642-30.468 30.47s13.641 30.468 30.468 30.468m54.898 41.672c2.592 2.593 2.332 6.884-.714 8.925C177.187 219.946 158.547 226 138.493 226s-38.694-6.054-54.191-16.434c-3.046-2.041-3.307-6.332-.714-8.925l22.266-22.267c2.012-2.012 5.134-2.33 7.667-1.032 7.49 3.837 15.978 6.001 24.972 6.001s17.482-2.164 24.972-6.001c2.533-1.298 5.654-.98 7.667 1.032z"/><path fill="#F4F2ED" fill-opacity=".5" d="M192.691 47.435c3.047 2.04 3.307 6.332.714 8.924l-22.266 22.267c-2.012 2.012-5.135 2.33-7.667 1.032-7.491-3.837-15.978-6.002-24.972-6.002-30.289 0-54.844 24.555-54.844 54.845 0 8.993 2.165 17.481 6.002 24.972 1.298 2.532.98 5.654-1.033 7.666L66.36 183.406c-2.592 2.592-6.884 2.332-8.924-.714C47.055 167.194 41 148.554 41 128.501 41 74.653 84.652 31 138.5 31c20.054 0 38.694 6.054 54.191 16.435"/></g><defs><clipPath id="clip0_1_31"><path fill="#fff" d="M0 0h256v256H0z"/></clipPath></defs></svg>
